X: 27681
T: Morfa'r Frenhines
R: waltz
M: 3/4
K: Dminor
A2|D2 (DEFG|A2)A2 [F2A2]|[F2d2][B2d2][B2d2]|c2A2A2|d2A2 (FG)|
F2G2A2|E2G2A2|E2B2A2|D2 (DEFG|A2)A2 [F2A2]|
[B2d2][B2d2][F2d2]|d2A2F2|G2A2B2|A2D2E2|D4:|
f2f2f2|e2e2e2|d2d2d2|c2A2A2|d2A2F2|
G2F2E2|F2G2A2|E2F2E2|D2 (DEFG)|A2A2A2|
d2d2d2|c2A2A2|d2A2F2|G2A2B2|A2D2E2|D4||

